X:1
T: Buckley's Fancy
C:
R:Reel
Q: 232
K:G
M:4/4
L:1/8
|:D2|G2 BG dG BG|AB cd ((3efg) dB|G2 BG dG BG|AB AG FD EF|
G2 BG dG BG|AB cd e2 g2|((3bag) ((3agf) ge dB|1GB AF G2 D2:|GB AF G2 ef|
|:gf ga ge de|ga bg ag eg|ag ab ag ef|ga bg e2 de|
gf ga ge de|ga bg ag ef|gf ga ge dB|1GB AF G2 ef:|2GB AF G2||
